app/content/themes/irontheme/images/general/pipe.svg

<svg width="36" height="36" viewBox="0 0 36 36" fill="none" xmlns="http://www.w3.org/2000/svg">
<path d="M34.3125 7.3125H32.625V6.1875H33.1875C33.498 6.1875 33.75 5.9355 33.75 5.625V3.375C33.75 3.0645 33.498 2.8125 33.1875 2.8125H32.625V1.125C32.625 0.8145 32.373 0.5625 32.0625 0.5625H26.4375C26.127 0.5625 25.875 0.8145 25.875 1.125V2.8125H25.3125C25.002 2.8125 24.75 3.0645 24.75 3.375V5.625C24.75 5.9355 25.002 6.1875 25.3125 6.1875H25.875V7.3125H24.1875C23.877 7.3125 23.625 7.5645 23.625 7.875V10.125C23.625 10.4355 23.877 10.6875 24.1875 10.6875H25.875V17.4375C25.875 18.6784 24.8659 19.6875 23.625 19.6875C22.3841 19.6875 21.375 18.6784 21.375 17.4375V9.5625C21.375 4.60013 17.3374 0.5625 12.375 0.5625C7.41263 0.5625 3.375 4.60013 3.375 9.5625V16.3125H1.6875C1.377 16.3125 1.125 16.5645 1.125 16.875V19.125C1.125 19.4355 1.377 19.6875 1.6875 19.6875H3.375V20.8125H2.8125C2.502 20.8125 2.25 21.0645 2.25 21.375V23.625C2.25 23.9355 2.502 24.1875 2.8125 24.1875H3.375V25.875C3.375 26.1855 3.627 26.4375 3.9375 26.4375H9.5625C9.873 26.4375 10.125 26.1855 10.125 25.875V24.1875H10.6875C10.998 24.1875 11.25 23.9355 11.25 23.625V21.375C11.25 21.0645 10.998 20.8125 10.6875 20.8125H10.125V19.6875H11.8125C12.123 19.6875 12.375 19.4355 12.375 19.125V16.875C12.375 16.5645 12.123 16.3125 11.8125 16.3125H10.125V9.5625C10.125 8.32162 11.1341 7.3125 12.375 7.3125C13.6159 7.3125 14.625 8.32162 14.625 9.5625V17.4375C14.625 22.3999 18.6626 26.4375 23.625 26.4375C28.5874 26.4375 32.625 22.3999 32.625 17.4375V10.6875H34.3125C34.623 10.6875 34.875 10.4355 34.875 10.125V7.875C34.875 7.5645 34.623 7.3125 34.3125 7.3125ZM27 1.6875H31.5V2.8125H27V1.6875ZM25.875 3.9375H32.625V5.0625H25.875V3.9375ZM27 6.1875H31.5V7.3125H27V6.1875ZM9 25.3125H4.5V24.1875H9V25.3125ZM10.125 23.0625H3.375V21.9375H10.125V23.0625ZM9 20.8125H4.5V19.6875H9V20.8125ZM11.25 18.5625H2.25V17.4375H11.25V18.5625ZM31.5 17.4375C31.5 21.78 27.9675 25.3125 23.625 25.3125C19.2825 25.3125 15.75 21.78 15.75 17.4375V9.5625C15.75 7.70119 14.2363 6.1875 12.375 6.1875C10.5137 6.1875 9 7.70119 9 9.5625V16.3125H4.5V9.5625C4.5 5.22 8.0325 1.6875 12.375 1.6875C16.7175 1.6875 20.25 5.22 20.25 9.5625V17.4375C20.25 19.2988 21.7637 20.8125 23.625 20.8125C25.4863 20.8125 27 19.2988 27 17.4375V10.6875H31.5V17.4375ZM33.75 9.5625H24.75V8.4375H33.75V9.5625Z" fill="url(#paint0_linear)"/>
<path d="M7.218 27.8131C7.00931 27.4998 6.49069 27.4998 6.282 27.8131L4.599 30.3376C4.16644 30.9867 3.9375 31.7422 3.9375 32.5286C3.9375 34.0169 5.05238 35.2887 6.4755 35.4249C6.56494 35.4333 6.65438 35.4378 6.74381 35.4378C7.44356 35.4378 8.12306 35.1785 8.64225 34.7066C9.22669 34.1744 9.5625 33.4156 9.5625 32.6253V32.5224C9.5625 31.7422 9.33356 30.9873 8.901 30.3382L7.218 27.8131ZM8.4375 32.6253C8.4375 33.0995 8.23612 33.5546 7.88512 33.8741C7.52962 34.1981 7.06838 34.3527 6.58294 34.3049C5.73019 34.2234 5.0625 33.4432 5.0625 32.5218C5.0625 31.9649 5.22619 31.4255 5.535 30.962L6.75 29.1395L7.965 30.962C8.27381 31.4255 8.4375 31.9649 8.4375 32.5224V32.6253Z" fill="url(#paint1_linear)"/>
<defs>
<linearGradient id="paint0_linear" x1="34.875" y1="13.5" x2="1.125" y2="13.5" gradientUnits="userSpaceOnUse">
<stop stop-color="#2063B1"/>
<stop offset="1" stop-color="#3CBAFC"/>
</linearGradient>
<linearGradient id="paint1_linear" x1="9.5625" y1="31.508" x2="3.9375" y2="31.508" gradientUnits="userSpaceOnUse">
<stop stop-color="#2063B1"/>
<stop offset="1" stop-color="#3CBAFC"/>
</linearGradient>
</defs>
</svg>

<svg width="36" height="36" viewBox="0 0 36 36" fill="none" xmlns="http://www.w3.org/2000/svg"><path d="M34.313 7.313h-1.688V6.188h.563c.31 0 .562-.252.562-.563v-2.25a.563.563 0 00-.563-.563h-.562V1.125a.563.563 0 00-.563-.563h-5.624a.563.563 0 00-.563.563v1.688h-.563a.563.563 0 00-.562.562v2.25c0 .31.252.563.563.563h.562v1.125h-1.688a.563.563 0 00-.562.562v2.25c0 .31.252.563.563.563h1.687v6.75c0 1.24-1.01 2.25-2.25 2.25s-2.25-1.01-2.25-2.25V9.563c0-4.963-4.038-9-9-9s-9 4.037-9 9v6.75H1.687a.563.563 0 00-.562.562v2.25c0 .31.252.563.563.563h1.687v1.125h-.563a.563.563 0 00-.562.562v2.25c0 .31.252.563.563.563h.562v1.687c0 .31.252.563.563.563h5.624a.563.563 0 00.563-.563v-1.688h.563c.31 0 .562-.252.562-.562v-2.25a.563.563 0 00-.563-.563h-.562v-1.125h1.688c.31 0 .562-.252.562-.562v-2.25a.563.563 0 00-.563-.563h-1.687v-6.75c0-1.24 1.01-2.25 2.25-2.25s2.25 1.01 2.25 2.25v7.876c0 4.962 4.038 9 9 9s9-4.038 9-9v-6.75h1.688c.31 0 .562-.253.562-.563v-2.25a.563.563 0 00-.563-.563zM27 1.688h4.5v1.125H27V1.687zm-1.125 2.25h6.75v1.124h-6.75V3.938zM27 6.188h4.5v1.125H27V6.188zM9 25.313H4.5v-1.125H9v1.125zm1.125-2.25h-6.75v-1.125h6.75v1.125zM9 20.813H4.5v-1.125H9v1.125zm2.25-2.25h-9v-1.125h9v1.125zm20.25-1.125c0 4.342-3.532 7.875-7.875 7.875s-7.875-3.533-7.875-7.875V9.563a3.378 3.378 0 00-3.375-3.376A3.378 3.378 0 009 9.563v6.75H4.5v-6.75c0-4.342 3.533-7.874 7.875-7.874 4.343 0 7.875 3.532 7.875 7.875v7.874a3.378 3.378 0 003.375 3.375A3.378 3.378 0 0027 17.438v-6.75h4.5v6.75zm2.25-7.875h-9V8.437h9v1.126z" fill="url(#paint0_linear)"/><path d="M7.218 27.813c-.209-.313-.727-.313-.936 0l-1.683 2.525a3.933 3.933 0 00-.662 2.19c0 1.489 1.115 2.76 2.539 2.897a2.825 2.825 0 002.167-.718c.584-.533.92-1.291.92-2.082v-.103c0-.78-.23-1.535-.662-2.184l-1.683-2.525zm1.22 4.812c0 .474-.202.93-.553 1.25a1.666 1.666 0 01-1.302.43c-.853-.082-1.52-.862-1.52-1.783 0-.557.163-1.096.472-1.56L6.75 29.14l1.215 1.822c.309.463.473 1.003.473 1.56v.103z" fill="url(#paint1_linear)"/><defs><linearGradient id="paint0_linear" x1="34.875" y1="13.5" x2="1.125" y2="13.5" gradientUnits="userSpaceOnUse"><stop stop-color="#2063B1"/><stop offset="1" stop-color="#3CBAFC"/></linearGradient><linearGradient id="paint1_linear" x1="9.563" y1="31.508" x2="3.938" y2="31.508" gradientUnits="userSpaceOnUse"><stop stop-color="#2063B1"/><stop offset="1" stop-color="#3CBAFC"/></linearGradient></defs></svg>
